X:350
T: Road Dust
S: "Passing Time" (Jim & Mary Coogan & friends)
C: M.Coogan
L: 1/8
M: 6/8
Q: 275
R: jig
K: G
A2B | GFG GAB | cBc de=f | edc cde | dBG FGA |
GFG GAB | cBc de=f | edc cde |1 d3 :|2 d3 ||
d2e | =f3 fed | e2d cde | dBG GAB | AFD D2e |
=f3 fed | e2d cde | dBG GAB | A3-A2e |
=f3 fed | g2e c2e | dBG GAB | AFD D3 |
BGG AGE | GED DEG | A2c BAG | A6 ||
